logos/neuropixels.svg

<?xml version="1.0" encoding="UTF-8"?>
<!DOCTYPE svg PUBLIC "-//W3C//DTD SVG 1.1//EN" "http://www.w3.org/Graphics/SVG/1.1/DTD/svg11.dtd">
<svg xmlns="http://www.w3.org/2000/svg" version="1.1" width="392px" height="136px" style="shape-rendering:geometricPrecision; text-rendering:geometricPrecision; image-rendering:optimizeQuality; fill-rule:evenodd; clip-rule:evenodd" xmlns:xlink="http://www.w3.org/1999/xlink">
<g><path style="opacity:1" fill="#fdfdfd" d="M -0.5,-0.5 C 130.167,-0.5 260.833,-0.5 391.5,-0.5C 391.5,44.8333 391.5,90.1667 391.5,135.5C 260.833,135.5 130.167,135.5 -0.5,135.5C -0.5,90.1667 -0.5,44.8333 -0.5,-0.5 Z"/></g>
<g><path style="opacity:1" fill="#040404" d="M 260.5,63.5 C 257.833,63.5 255.167,63.5 252.5,63.5C 252.5,55.1667 252.5,46.8333 252.5,38.5C 253.524,34.6381 255.857,31.8048 259.5,30C 267.159,29.5003 274.826,29.3336 282.5,29.5C 282.5,32.1667 282.5,34.8333 282.5,37.5C 275.245,37.1868 268.079,37.5201 261,38.5C 260.5,46.8267 260.334,55.16 260.5,63.5 Z"/></g>
<g><path style="opacity:1" fill="#080808" d="M 90.5,41.5 C 90.5,48.8333 90.5,56.1667 90.5,63.5C 88.1667,63.5 85.8333,63.5 83.5,63.5C 83.824,56.6457 83.4907,49.979 82.5,43.5C 81.9202,41.2512 80.5869,39.5846 78.5,38.5C 72.69,37.5104 66.69,37.1771 60.5,37.5C 60.5,46.5 60.5,55.5 60.5,64.5C 57.8333,64.5 55.1667,64.5 52.5,64.5C 52.3335,53.495 52.5002,42.495 53,31.5C 53.5,31 54,30.5 54.5,30C 63.1667,29.3333 71.8333,29.3333 80.5,30C 85.8534,32.1798 89.1867,36.0131 90.5,41.5 Z"/></g>
<g><path style="opacity:1" fill="#0d0d0d" d="M 126.5,29.5 C 134.507,29.3336 142.507,29.5003 150.5,30C 158.608,35.5153 159.608,42.182 153.5,50C 152.167,50.6667 150.833,51.3333 149.5,52C 143.509,52.4995 137.509,52.6662 131.5,52.5C 131.5,49.8333 131.5,47.1667 131.5,44.5C 137.176,44.6661 142.843,44.4994 148.5,44C 149.833,42 149.833,40 148.5,38C 141.586,37.1888 134.752,37.3555 128,38.5C 127.17,44.1959 127.337,49.8625 128.5,55.5C 134.104,56.4544 139.771,56.7877 145.5,56.5C 145.5,59.1667 145.5,61.8333 145.5,64.5C 123.167,68.6652 114.667,59.6652 120,37.5C 121.305,34.0386 123.471,31.372 126.5,29.5 Z"/></g>
<g><path style="opacity:1" fill="#0c0c0c" d="M 184.5,29.5 C 187.167,29.5 189.833,29.5 192.5,29.5C 192.065,37.6112 192.565,45.6112 194,53.5C 194.5,54 195,54.5 195.5,55C 201.825,55.4995 208.158,55.6662 214.5,55.5C 214.5,46.8333 214.5,38.1667 214.5,29.5C 217.167,29.5 219.833,29.5 222.5,29.5C 222.667,40.505 222.5,51.505 222,62.5C 221.5,63 221,63.5 220.5,64C 212.167,64.6667 203.833,64.6667 195.5,64C 190.644,62.3236 187.144,59.157 185,54.5C 184.5,46.1733 184.334,37.84 184.5,29.5 Z"/></g>
<g><path style="opacity:1" fill="#0c0c0c" d="M 316.5,29.5 C 323.841,29.3337 331.174,29.5003 338.5,30C 343.333,30.8333 346.167,33.6667 347,38.5C 347.667,44.5 347.667,50.5 347,56.5C 343.064,63.8641 336.897,66.5307 328.5,64.5C 324.833,64.3333 321.167,64.1667 317.5,64C 314.804,63.3102 312.637,61.8102 311,59.5C 309.402,51.9391 309.069,44.2724 310,36.5C 311.694,33.6424 313.861,31.309 316.5,29.5 Z"/></g>
<g><path style="opacity:1" fill="#f7f7f7" d="M 318.5,37.5 C 324.842,37.3338 331.175,37.5005 337.5,38C 338,38.5 338.5,39 339,39.5C 339.667,44.5 339.667,49.5 339,54.5C 332.248,55.6445 325.414,55.8112 318.5,55C 317.187,49.167 317.187,43.3337 318.5,37.5 Z"/></g>
<g><path style="opacity:1" fill="#b7b7b7" d="M 78.5,38.5 C 72.8333,38.5 67.1667,38.5 61.5,38.5C 61.8264,47.3494 61.493,56.0161 60.5,64.5C 60.5,55.5 60.5,46.5 60.5,37.5C 66.69,37.1771 72.69,37.5104 78.5,38.5 Z"/></g>
<g><path style="opacity:1" fill="#959595" d="M 252.5,38.5 C 252.5,46.8333 252.5,55.1667 252.5,63.5C 255.167,63.5 257.833,63.5 260.5,63.5C 257.713,64.4767 254.713,64.81 251.5,64.5C 251.174,55.6506 251.507,46.9839 252.5,38.5 Z"/></g>
<g><path style="opacity:1" fill="#5e5e5e" d="M 90.5,41.5 C 91.492,48.9818 91.8254,56.6484 91.5,64.5C 88.5,64.5 85.5,64.5 82.5,64.5C 82.5,57.5 82.5,50.5 82.5,43.5C 83.4907,49.979 83.824,56.6457 83.5,63.5C 85.8333,63.5 88.1667,63.5 90.5,63.5C 90.5,56.1667 90.5,48.8333 90.5,41.5 Z"/></g>
<g><path style="opacity:1" fill="#060606" d="M 99.5,72.5 C 99.5,88.1667 99.5,103.833 99.5,119.5C 84.1667,119.5 68.8333,119.5 53.5,119.5C 53.5,112.5 53.5,105.5 53.5,98.5C 51.3926,97.5318 49.0593,97.1984 46.5,97.5C 46.5,104.5 46.5,111.5 46.5,118.5C 46.1034,119.525 45.4368,119.692 44.5,119C 31.6684,111.752 19.0017,104.252 6.5,96.5C 19.2174,88.4701 32.2174,80.8034 45.5,73.5C 46.1067,73.6236 46.44,73.9569 46.5,74.5C 46.5,81.5 46.5,88.5 46.5,95.5C 49.0593,95.8016 51.3926,95.4682 53.5,94.5C 53.5,87.1667 53.5,79.8333 53.5,72.5C 68.8333,72.5 84.1667,72.5 99.5,72.5 Z"/></g>
<g><path style="opacity:1" fill="#000000" d="M 149.5,73.5 C 149.5,88.8333 149.5,104.167 149.5,119.5C 134.167,119.5 118.833,119.5 103.5,119.5C 103.5,104.167 103.5,88.8333 103.5,73.5C 118.833,73.5 134.167,73.5 149.5,73.5 Z"/></g>
<g><path style="opacity:1" fill="#050505" d="M 152.5,72.5 C 168.167,72.5 183.833,72.5 199.5,72.5C 199.5,88.1667 199.5,103.833 199.5,119.5C 183.833,119.5 168.167,119.5 152.5,119.5C 152.5,103.833 152.5,88.1667 152.5,72.5 Z"/></g>
<g><path style="opacity:1" fill="#060606" d="M 248.5,72.5 C 248.5,88.1667 248.5,103.833 248.5,119.5C 233.167,119.5 217.833,119.5 202.5,119.5C 202.5,103.833 202.5,88.1667 202.5,72.5C 217.833,72.5 233.167,72.5 248.5,72.5 Z"/></g>
<g><path style="opacity:1" fill="#050505" d="M 252.5,72.5 C 267.833,72.5 283.167,72.5 298.5,72.5C 298.5,88.1667 298.5,103.833 298.5,119.5C 283.167,119.5 267.833,119.5 252.5,119.5C 252.5,103.833 252.5,88.1667 252.5,72.5 Z"/></g>
<g><path style="opacity:1" fill="#bebebe" d="M 46.5,74.5 C 47.4907,80.979 47.824,87.6457 47.5,94.5C 49.5,94.5 51.5,94.5 53.5,94.5C 51.3926,95.4682 49.0593,95.8016 46.5,95.5C 46.5,88.5 46.5,81.5 46.5,74.5 Z"/></g>
<g><path style="opacity:1" fill="#030303" d="M 351.5,74.5 C 362.643,81.575 373.643,88.9084 384.5,96.5C 373.53,103.638 362.697,110.971 352,118.5C 351.5,103.837 351.333,89.1705 351.5,74.5 Z"/></g>
<g><path style="opacity:1" fill="#8d8d8d" d="M 149.5,73.5 C 134.167,73.5 118.833,73.5 103.5,73.5C 103.5,88.8333 103.5,104.167 103.5,119.5C 102.504,104.009 102.17,88.3422 102.5,72.5C 118.342,72.1704 134.009,72.5037 149.5,73.5 Z"/></g>
<g><path style="opacity:1" fill="#545454" d="M 347.5,119.5 C 347.5,104.167 347.5,88.8333 347.5,73.5C 332.5,73.5 317.5,73.5 302.5,73.5C 302.5,88.8333 302.5,104.167 302.5,119.5C 301.504,104.009 301.17,88.3422 301.5,72.5C 317.167,72.5 332.833,72.5 348.5,72.5C 348.83,88.3422 348.496,104.009 347.5,119.5 Z"/></g>
<g><path style="opacity:1" fill="#020202" d="M 347.5,119.5 C 332.5,119.5 317.5,119.5 302.5,119.5C 302.5,104.167 302.5,88.8333 302.5,73.5C 317.5,73.5 332.5,73.5 347.5,73.5C 347.5,88.8333 347.5,104.167 347.5,119.5 Z"/></g>
<g><path style="opacity:1" fill="#fbfbfb" d="M 42.5,78.5 C 43.8333,90.5 43.8333,102.5 42.5,114.5C 32.0658,108.779 21.7325,102.779 11.5,96.5C 21.6971,90.2358 32.0304,84.2358 42.5,78.5 Z"/></g>
<g><path style="opacity:1" fill="#626262" d="M 42.5,78.5 C 42.56,77.9569 42.8933,77.6236 43.5,77.5C 44.8333,90.1667 44.8333,102.833 43.5,115.5C 42.8933,115.376 42.56,115.043 42.5,114.5C 43.8333,102.5 43.8333,90.5 42.5,78.5 Z"/></g>
<g><path style="opacity:1" fill="#f2f2f2" d="M 68.5,82.5 C 73.8437,82.334 79.1771,82.5006 84.5,83C 90.0248,85.9188 91.8581,90.4188 90,96.5C 89.2155,98.286 88.0488,99.786 86.5,101C 81.2919,102.397 75.9586,102.897 70.5,102.5C 70.5,100.833 70.5,99.1667 70.5,97.5C 74.8461,97.6657 79.1794,97.499 83.5,97C 86.1667,94 86.1667,91 83.5,88C 78.8452,87.5008 74.1785,87.3342 69.5,87.5C 69.5,94.5 69.5,101.5 69.5,108.5C 67.8333,108.5 66.1667,108.5 64.5,108.5C 64.3337,101.159 64.5003,93.8258 65,86.5C 66.3756,85.2949 67.5423,83.9616 68.5,82.5 Z"/></g>
<g><path style="opacity:1" fill="#e7e7e7" d="M 123.5,82.5 C 125.167,82.5 126.833,82.5 128.5,82.5C 128.5,91.1667 128.5,99.8333 128.5,108.5C 126.833,108.5 125.167,108.5 123.5,108.5C 123.5,99.8333 123.5,91.1667 123.5,82.5 Z"/></g>
<g><path style="opacity:1" fill="#f3f3f3" d="M 162.5,82.5 C 164.527,82.3379 166.527,82.5045 168.5,83C 170.647,86.1149 173.147,88.9482 176,91.5C 178.872,88.9634 181.372,86.1301 183.5,83C 185.833,82.3333 188.167,82.3333 190.5,83C 186.48,86.8853 182.814,91.052 179.5,95.5C 182.608,100.112 186.275,104.278 190.5,108C 188.167,108.667 185.833,108.667 183.5,108C 180.882,105.261 178.382,102.427 176,99.5C 173.872,102.63 171.372,105.463 168.5,108C 166.5,108.667 164.5,108.667 162.5,108C 166.023,103.978 169.357,99.811 172.5,95.5C 168.907,91.287 165.574,86.9536 162.5,82.5 Z"/></g>
<g><path style="opacity:1" fill="#f0f0f0" d="M 215.5,82.5 C 222.833,82.5 230.167,82.5 237.5,82.5C 237.5,84.1667 237.5,85.8333 237.5,87.5C 231.5,87.5 225.5,87.5 219.5,87.5C 219.5,92.8333 219.5,98.1667 219.5,103.5C 225.5,103.5 231.5,103.5 237.5,103.5C 237.5,105.167 237.5,106.833 237.5,108.5C 231.158,108.666 224.825,108.5 218.5,108C 217.069,107.535 215.903,106.701 215,105.5C 214.202,97.754 214.369,90.0873 215.5,82.5 Z"/></g>
<g><path style="opacity:1" fill="#f5f5f5" d="M 269.5,103.5 C 275.31,104.49 281.31,104.823 287.5,104.5C 287.5,105.833 287.5,107.167 287.5,108.5C 279.913,108.814 272.413,108.481 265,107.5C 264.5,99.1733 264.334,90.84 264.5,82.5C 266.167,82.5 267.833,82.5 269.5,82.5C 269.5,89.5 269.5,96.5 269.5,103.5 Z"/></g>
<g><path style="opacity:1" fill="#f0f0f0" d="M 317.5,82.5 C 323.5,82.5 329.5,82.5 335.5,82.5C 335.5,84.1667 335.5,85.8333 335.5,87.5C 329.824,87.3339 324.157,87.5006 318.5,88C 317.167,89.6667 317.167,91.3333 318.5,93C 324.278,93.0941 329.944,93.7608 335.5,95C 337.028,96.6477 337.695,98.6477 337.5,101C 337.695,103.352 337.028,105.352 335.5,107C 327.946,108.432 320.279,108.932 312.5,108.5C 312.5,106.833 312.5,105.167 312.5,103.5C 319.175,103.666 325.842,103.5 332.5,103C 333.833,101.667 333.833,100.333 332.5,99C 327.833,98.6667 323.167,98.3333 318.5,98C 313.076,95.983 311.242,92.1497 313,86.5C 314.397,84.9297 315.897,83.5964 317.5,82.5 Z"/></g>
<g><path style="opacity:1" fill="#e5e5e5" d="M 220.5,93.5 C 225.5,93.5 230.5,93.5 235.5,93.5C 235.5,95.1667 235.5,96.8333 235.5,98.5C 230.5,98.5 225.5,98.5 220.5,98.5C 220.5,96.8333 220.5,95.1667 220.5,93.5 Z"/></g>
<g><path style="opacity:1" fill="#cdcdcd" d="M 53.5,98.5 C 51.5,98.5 49.5,98.5 47.5,98.5C 47.824,105.354 47.4907,112.021 46.5,118.5C 46.5,111.5 46.5,104.5 46.5,97.5C 49.0593,97.1984 51.3926,97.5318 53.5,98.5 Z"/></g>
<g><path style="opacity:1" fill="#a9a9a9" d="M 269.5,103.5 C 275.833,103.5 282.167,103.5 288.5,103.5C 288.784,105.415 288.451,107.081 287.5,108.5C 287.5,107.167 287.5,105.833 287.5,104.5C 281.31,104.823 275.31,104.49 269.5,103.5 Z"/></g>
<g><path style="opacity:1" fill="#9b9b9b" d="M 99.5,72.5 C 100.496,88.3246 100.83,104.325 100.5,120.5C 84.6578,120.83 68.9911,120.496 53.5,119.5C 68.8333,119.5 84.1667,119.5 99.5,119.5C 99.5,103.833 99.5,88.1667 99.5,72.5 Z"/></g>
<g><path style="opacity:1" fill="#a2a2a2" d="M 248.5,72.5 C 249.496,88.3246 249.83,104.325 249.5,120.5C 233.658,120.83 217.991,120.496 202.5,119.5C 217.833,119.5 233.167,119.5 248.5,119.5C 248.5,103.833 248.5,88.1667 248.5,72.5 Z"/></g>
</svg>

<svg xmlns="http://www.w3.org/2000/svg" width="392" height="136" style="shape-rendering:geometricPrecision;text-rendering:geometricPrecision;image-rendering:optimizeQuality;fill-rule:evenodd;clip-rule:evenodd"><path style="opacity:1" fill="#fdfdfd" d="M-.5-.5h392v136H-.5V-.5z"/><path style="opacity:1" fill="#040404" d="M260.5 63.5h-8v-25c1.024-3.862 3.357-6.695 7-8.5 7.659-.5 15.326-.666 23-.5v8c-7.255-.313-14.421.02-21.5 1a313 313 0 0 0-.5 25z"/><path style="opacity:1" fill="#080808" d="M90.5 41.5v22h-7c.324-6.854-.01-13.521-1-20-.58-2.249-1.913-3.915-4-5-5.81-.99-11.81-1.323-18-1v27h-8c-.166-11.005 0-22.005.5-33l1.5-1.5a169.242 169.242 0 0 1 26 0c5.353 2.18 8.687 6.013 10 11.5z"/><path style="opacity:1" fill="#0d0d0d" d="M126.5 29.5c8.007-.166 16.007 0 24 .5 8.108 5.515 9.108 12.182 3 20l-4 2c-5.991.5-11.991.666-18 .5v-8c5.676.166 11.343 0 17-.5 1.333-2 1.333-4 0-6-6.914-.811-13.748-.645-20.5.5a48.73 48.73 0 0 0 .5 17 77.734 77.734 0 0 0 17 1v8c-22.333 4.165-30.833-4.835-25.5-27 1.305-3.461 3.471-6.128 6.5-8z"/><path style="opacity:1" fill="#0c0c0c" d="M184.5 29.5h8a102.865 102.865 0 0 0 1.5 24l1.5 1.5c6.325.5 12.658.666 19 .5v-26h8c.167 11.005 0 22.005-.5 33l-1.5 1.5c-8.333.667-16.667.667-25 0-4.856-1.676-8.356-4.843-10.5-9.5a313 313 0 0 1-.5-25zM316.5 29.5c7.341-.166 14.674 0 22 .5 4.833.833 7.667 3.667 8.5 8.5.667 6 .667 12 0 18-3.936 7.364-10.103 10.03-18.5 8l-11-.5c-2.696-.69-4.863-2.19-6.5-4.5-1.598-7.56-1.931-15.228-1-23 1.694-2.858 3.861-5.191 6.5-7z"/><path style="opacity:1" fill="#f7f7f7" d="M318.5 37.5c6.342-.166 12.675 0 19 .5l1.5 1.5c.667 5 .667 10 0 15-6.752 1.145-13.586 1.311-20.5.5a39.366 39.366 0 0 1 0-17.5z"/><path style="opacity:1" fill="#b7b7b7" d="M78.5 38.5h-17c.326 8.85-.007 17.516-1 26v-27c6.19-.323 12.19.01 18 1z"/><path style="opacity:1" fill="#959595" d="M252.5 38.5v25h8c-2.787.977-5.787 1.31-9 1-.326-8.85.007-17.516 1-26z"/><path style="opacity:1" fill="#5e5e5e" d="M90.5 41.5c.992 7.482 1.325 15.148 1 23h-9v-21c.99 6.479 1.324 13.146 1 20h7v-22z"/><path style="opacity:1" fill="#060606" d="M99.5 72.5v47h-46v-21c-2.107-.968-4.44-1.302-7-1v21c-.397 1.025-1.063 1.192-2 .5a1080.414 1080.414 0 0 1-38-22.5 748.702 748.702 0 0 1 39-23c.607.124.94.457 1 1v21c2.56.302 4.893-.032 7-1v-22h46z"/><path style="opacity:1" d="M149.5 73.5v46h-46v-46h46z"/><path style="opacity:1" fill="#050505" d="M152.5 72.5h47v47h-47v-47z"/><path style="opacity:1" fill="#060606" d="M248.5 72.5v47h-46v-47h46z"/><path style="opacity:1" fill="#050505" d="M252.5 72.5h46v47h-46v-47z"/><path style="opacity:1" fill="#bebebe" d="M46.5 74.5c.99 6.479 1.324 13.146 1 20h6c-2.107.968-4.44 1.302-7 1v-21z"/><path style="opacity:1" fill="#030303" d="M351.5 74.5a891.103 891.103 0 0 1 33 22 1076.829 1076.829 0 0 0-32.5 22c-.5-14.663-.667-29.33-.5-44z"/><path style="opacity:1" fill="#8d8d8d" d="M149.5 73.5h-46v46a552.803 552.803 0 0 1-1-47c15.842-.33 31.509.004 47 1z"/><path style="opacity:1" fill="#545454" d="M347.5 119.5v-46h-45v46a552.803 552.803 0 0 1-1-47h47a552.803 552.803 0 0 1-1 47z"/><path style="opacity:1" fill="#020202" d="M347.5 119.5h-45v-46h45v46z"/><path style="opacity:1" fill="#fbfbfb" d="M42.5 78.5c1.333 12 1.333 24 0 36a733.763 733.763 0 0 1-31-18 721.47 721.47 0 0 1 31-18z"/><path style="opacity:1" fill="#626262" d="M42.5 78.5c.06-.543.393-.876 1-1a181.005 181.005 0 0 1 0 38c-.607-.124-.94-.457-1-1 1.333-12 1.333-24 0-36z"/><path style="opacity:1" fill="#f2f2f2" d="M68.5 82.5c5.344-.166 10.677 0 16 .5 5.525 2.919 7.358 7.419 5.5 13.5a11.529 11.529 0 0 1-3.5 4.5c-5.208 1.397-10.541 1.897-16 1.5v-5c4.346.166 8.68-.001 13-.5 2.667-3 2.667-6 0-9a98.433 98.433 0 0 0-14-.5v21h-5c-.166-7.341 0-14.674.5-22a19.568 19.568 0 0 0 3.5-4z"/><path style="opacity:1" fill="#e7e7e7" d="M123.5 82.5h5v26h-5v-26z"/><path style="opacity:1" fill="#f3f3f3" d="M162.5 82.5a18.437 18.437 0 0 1 6 .5 47.659 47.659 0 0 0 7.5 8.5 45.24 45.24 0 0 0 7.5-8.5 12.5 12.5 0 0 1 7 0 102.656 102.656 0 0 0-11 12.5 65.052 65.052 0 0 0 11 12.5 12.494 12.494 0 0 1-7 0 142.196 142.196 0 0 1-7.5-8.5 45.255 45.255 0 0 1-7.5 8.5c-2 .667-4 .667-6 0a179.06 179.06 0 0 0 10-12.5 160.773 160.773 0 0 1-10-13z"/><path style="opacity:1" fill="#f0f0f0" d="M215.5 82.5h22v5h-18v16h18v5c-6.342.166-12.675 0-19-.5a6.978 6.978 0 0 1-3.5-2.5c-.798-7.746-.631-15.413.5-23z"/><path style="opacity:1" fill="#f5f5f5" d="M269.5 103.5c5.81.99 11.81 1.323 18 1v4a130.161 130.161 0 0 1-22.5-1 313 313 0 0 1-.5-25h5v21z"/><path style="opacity:1" fill="#f0f0f0" d="M317.5 82.5h18v5c-5.676-.166-11.343 0-17 .5-1.333 1.667-1.333 3.333 0 5 5.778.094 11.444.76 17 2 1.528 1.648 2.195 3.648 2 6 .195 2.352-.472 4.352-2 6a94.81 94.81 0 0 1-23 1.5v-5c6.675.166 13.342 0 20-.5 1.333-1.333 1.333-2.667 0-4l-14-1c-5.424-2.017-7.258-5.85-5.5-11.5 1.397-1.57 2.897-2.904 4.5-4z"/><path style="opacity:1" fill="#e5e5e5" d="M220.5 93.5h15v5h-15v-5z"/><path style="opacity:1" fill="#cdcdcd" d="M53.5 98.5h-6c.324 6.854-.01 13.521-1 20v-21c2.56-.302 4.893.032 7 1z"/><path style="opacity:1" fill="#a9a9a9" d="M269.5 103.5h19c.284 1.915-.049 3.581-1 5v-4c-6.19.323-12.19-.01-18-1z"/><path style="opacity:1" fill="#9b9b9b" d="M99.5 72.5a576.625 576.625 0 0 1 1 48 552.804 552.804 0 0 1-47-1h46v-47z"/><path style="opacity:1" fill="#a2a2a2" d="M248.5 72.5a576.625 576.625 0 0 1 1 48 552.805 552.805 0 0 1-47-1h46v-47z"/></svg>
